X: 234
T:Entrance Hymn for the Emperor
C:anon, Chinese, possibly 1000 BC
S:Davidson and Apel, Historical Anthology of Music
M:4/4
L:1/4
Q:1/2=60
K:DDor
D D A C|D2  D C|A c d c|A4    |\
G F D C|A2  D C|A c d c|A4    |
G F D C|A2  D C|A c d c|A2 G F|\
D2  C A|C D C A|G4    |]

This Slovenian tune shows clearly how a misleading final can develop.
The last line has been cut off short (a common feature of Slovenian
songs) before it can descend to the B flat as it does in the second
line, leaving a tune which at first sight looks as if it's G phrygian:

